content/1_docs/1_guide/10_authentication/users.svg

<svg height="32" viewBox="0 0 32 32" width="32" xmlns="http://www.w3.org/2000/svg"><g fill="none" stroke="#111" stroke-linecap="square" stroke-miterlimit="10" stroke-width="2"><path d="m25 29h6v-5.438a2 2 0 0 0 -1.515-1.941l-5.833-1.458a1 1 0 0 1 -.747-.829l-.412-2.881a6 6 0 0 0 3.507-5.453v-2.748a6.166 6.166 0 0 0 -5.815-6.252 5.977 5.977 0 0 0 -3.185.8"/><path d="m19.549 23.586-4.925-1.408a1 1 0 0 1 -.716-.82l-.415-2.905s3.726.281 5.507-1.453a10.229 10.229 0 0 1 -2-6.738 6.185 6.185 0 0 0 -5.761-6.257 6 6 0 0 0 -6.239 5.995 10.452 10.452 0 0 1 -2 7c1.781 1.734 5.507 1.453 5.507 1.453l-.415 2.905a1 1 0 0 1 -.716.82l-4.925 1.408a2 2 0 0 0 -1.451 1.923v3.491h20v-3.491a2 2 0 0 0 -1.451-1.923z" stroke="#111"/></g></svg>

<svg height="32" width="32" xmlns="http://www.w3.org/2000/svg"><path d="M25 29h6v-5.438a2 2 0 00-1.515-1.941l-5.833-1.458a1 1 0 01-.747-.829l-.412-2.881A6 6 0 0026 11V8.252A6.166 6.166 0 0020.185 2 5.977 5.977 0 0017 2.8m2.549 20.786l-4.925-1.408a1 1 0 01-.716-.82l-.415-2.905S17.219 18.734 19 17a10.229 10.229 0 01-2-6.738 6.185 6.185 0 00-5.761-6.257A6 6 0 005 10a10.452 10.452 0 01-2 7c1.781 1.734 5.507 1.453 5.507 1.453l-.415 2.905a1 1 0 01-.716.82l-4.925 1.408A2 2 0 001 25.509V29h20v-3.491a2 2 0 00-1.451-1.923z" fill="none" stroke="#111" stroke-linecap="square" stroke-miterlimit="10" stroke-width="2"/></svg>
